X: 1
T: The Dub
R: reel
M: 4/4
L: 1/8
K: Ador
|:A2ea g2ea|gedB GABG|A2ea g2ea|gedB eAAG|
A2ea g2ea|gedB GABc|dBcA BGAF|GEDF EAAG:|
|:~A3B cBAF|GEdB GABG|A2AB cBAF|GEDF EAAG|
~A3B cBAF|GEdB GABc|dBcA BGAF|GEDF EAAG:|


Tune 1975	Setting 26657

